X:2
T:Fly Around My Pretty Little Miss - #110
C:Traditional
M:4/4
L:1/4
K:D
V:1 clef=treble name="Melody"
N:Play CabbageX3; PrettyX2; CabbageX2; PrettyX2; CabbageX1
N:(First Cabbage by beginners)
|:"D"F A A A/2A/2|"G"B G G G/2G/2|"D"A A/2B/2 A F|"A"E E/2E/2 E E
|"D"F A A/2A/2 A|"G"G B B/2B/2 B|"A"A A F E|"D"D D/2D/2 D D:||
